X:930
T: Meenacross
S: B.Breathnach: "Ceol Rince na hEireann" II/286 (gan ainm)
Z: B.Black
L: 1/8
M: 4/4
R: reel
K: Edor
dc|B>EGE BcdB|A>DFD FGAc|B>EGE Bcdf|gfed Bedc|
B>EGE BcdB|A>DFD FGAc|B>EGE Bcdf|gfed Bee ||
a|gebe gbeg|gdad fddf|gebe gbef|g2 ed Beea|
gebe gbeg|gdad fgaf|g2 bg dgbf|gfed Bedc ||

